icons/media/recording-circle-fill-24.svg

<svg width="24" height="24" viewBox="0 0 24 24" fill="none" xmlns="http://www.w3.org/2000/svg">
<path fill-rule="evenodd" clip-rule="evenodd" d="M1 12C1 5.925 5.925 1 12 1C18.075 1 23 5.925 23 12C23 18.075 18.075 23 12 23C5.925 23 1 18.075 1 12ZM12 5C12.4142 5 12.75 5.33579 12.75 5.75V18.25C12.75 18.6642 12.4142 19 12 19C11.5858 19 11.25 18.6642 11.25 18.25V5.75C11.25 5.33579 11.5858 5 12 5ZM16 8.75C16 8.33579 15.6642 8 15.25 8C14.8358 8 14.5 8.33579 14.5 8.75V15.25C14.5 15.6642 14.8358 16 15.25 16C15.6642 16 16 15.6642 16 15.25V8.75ZM18.5 10C18.9142 10 19.25 10.3358 19.25 10.75V13.25C19.25 13.6642 18.9142 14 18.5 14C18.0858 14 17.75 13.6642 17.75 13.25V10.75C17.75 10.3358 18.0858 10 18.5 10ZM9.5 8.75C9.5 8.33579 9.16421 8 8.75 8C8.33579 8 8 8.33579 8 8.75L8 15.25C8 15.6642 8.33579 16 8.75 16C9.16421 16 9.5 15.6642 9.5 15.25V8.75ZM5.5 10C5.91421 10 6.25 10.3358 6.25 10.75V13.25C6.25 13.6642 5.91421 14 5.5 14C5.08579 14 4.75 13.6642 4.75 13.25V10.75C4.75 10.3358 5.08579 10 5.5 10Z" fill="black"/>
</svg>

<svg xmlns="http://www.w3.org/2000/svg" width="24" height="24"><path fill-rule="evenodd" d="M1 12C1 5.925 5.925 1 12 1s11 4.925 11 11-4.925 11-11 11S1 18.075 1 12zm11-7a.75.75 0 01.75.75v12.5a.75.75 0 01-1.5 0V5.75A.75.75 0 0112 5zm4 3.75a.75.75 0 00-1.5 0v6.5a.75.75 0 001.5 0v-6.5zM18.5 10a.75.75 0 01.75.75v2.5a.75.75 0 01-1.5 0v-2.5a.75.75 0 01.75-.75zm-9-1.25a.75.75 0 00-1.5 0v6.5a.75.75 0 001.5 0v-6.5zM5.5 10a.75.75 0 01.75.75v2.5a.75.75 0 01-1.5 0v-2.5A.75.75 0 015.5 10z"/></svg>
